src/assets/map2.svg

<svg width="65" height="59" viewBox="0 0 63 58" fill="none" xmlns="http://www.w3.org/2000/svg">
<path d="M11.4497 57.7946C7.28463 53.7701 3.72965 49.7457 1.38499 44.7654C-0.599526 40.5498 -0.538276 36.4248 2.13469 32.5261C3.69581 30.2658 5.99715 28.6578 8.61801 27.9959C11.2389 27.3341 14.0042 27.6627 16.4085 28.9217C21.3992 31.5276 23.9006 37.4737 21.8916 42.8488C20.8847 45.5401 19.3559 48.0982 17.6948 50.4399C15.8597 53.0206 13.6032 55.2868 11.4497 57.7946ZM11.3345 35.5394C10.6209 35.538 9.92284 35.7532 9.32807 36.1581C8.73331 36.5629 8.2684 37.1392 7.99181 37.8145C7.71522 38.4898 7.63929 39.2341 7.77358 39.9536C7.90787 40.6731 8.24638 41.3358 8.74654 41.8584C9.2467 42.3809 9.88618 42.74 10.5846 42.8904C11.283 43.0408 12.0091 42.9759 12.6717 42.7038C13.3342 42.4317 13.9036 41.9645 14.3083 41.3611C14.7129 40.7576 14.9347 40.0449 14.9458 39.3123C14.9507 38.8206 14.8609 38.3326 14.6816 37.8766C14.5023 37.4205 14.237 37.0053 13.9011 36.6548C13.5651 36.3042 13.165 36.0252 12.7237 35.8338C12.2824 35.6424 11.8086 35.5424 11.3296 35.5394H11.3345Z" fill="white"/>
<path d="M51.4354 29.9951C47.0253 25.6537 42.9069 21.2394 40.8562 15.3134C39.2122 10.5696 40.3931 6.3867 43.9408 2.97095C47.1821 -0.150501 52.0748 -0.857282 56.1468 1.06439C60.2701 3.01121 63.0068 7.29725 62.6589 11.9279C62.4643 13.9194 61.9171 15.8578 61.0443 17.6476C58.805 22.4317 55.3211 26.2599 51.4354 29.9951ZM51.4035 15.3034C52.1173 15.3057 52.8159 15.0914 53.4113 14.6872C54.0067 14.283 54.4724 13.707 54.7497 13.0317C55.027 12.3565 55.1037 11.6121 54.9699 10.8923C54.8362 10.1724 54.4981 9.50928 53.9981 8.98624C53.4982 8.4632 52.8587 8.10364 52.1602 7.95281C51.4616 7.80197 50.7353 7.86658 50.0724 8.13854C49.4096 8.41049 48.8399 8.87765 48.435 9.48119C48.0302 10.0847 47.8082 10.7977 47.7971 11.5304C47.7919 12.0215 47.8812 12.5087 48.0597 12.9643C48.2383 13.4198 48.5027 13.8347 48.8377 14.1852C49.1727 14.5357 49.5718 14.8149 50.0121 15.0068C50.4524 15.1986 50.9252 15.2994 51.4035 15.3034V15.3034Z" fill="white"/>
<path d="M18.6348 56.9178V53.1876H20.1636C28.2454 53.1876 36.3263 53.1876 44.4065 53.1876C47.3686 53.1876 49.505 51.1301 49.576 48.3055C49.6061 47.644 49.5056 46.9831 49.2807 46.3625C49.0557 45.7419 48.711 45.1743 48.267 44.6939C47.8231 44.2135 47.2892 43.8301 46.6974 43.5668C46.1055 43.3035 45.468 43.1657 44.823 43.1617C41.3146 43.1139 37.8012 43.1969 34.2879 43.1265C30.1229 43.0435 26.5606 39.8566 25.975 35.8146C25.338 31.4154 27.6557 27.4086 31.6689 26.005C32.1583 25.7945 32.6764 25.663 33.205 25.6151C36.7869 25.5824 40.3689 25.5976 44.0243 25.5976V29.3176H42.5126C39.8593 29.3176 37.2059 29.3 34.5525 29.3176C31.7105 29.3428 29.6059 31.4229 29.5496 34.2224C29.4932 37.0219 31.6052 39.3008 34.4839 39.3511C37.8307 39.4089 41.1774 39.3511 44.529 39.3712C49.4609 39.3913 53.229 43.1617 53.2658 48.0891C53.3025 53.0165 49.4878 56.953 44.5315 56.9655C36.2455 56.9907 27.962 56.9655 19.676 56.9655C19.3943 56.963 19.1125 56.9404 18.6348 56.9178Z" fill="white"/>
</svg>

<svg width="65" height="59" viewBox="0 0 63 58" fill="none" xmlns="http://www.w3.org/2000/svg"><path d="M11.45 57.795c-4.165-4.025-7.72-8.05-10.065-13.03-1.985-4.215-1.923-8.34.75-12.239a11.235 11.235 0 0 1 6.483-4.53 10.976 10.976 0 0 1 7.79.926c4.991 2.606 7.493 8.552 5.484 13.927-1.007 2.691-2.536 5.25-4.197 7.59-1.835 2.582-4.092 4.848-6.245 7.356Zm-.115-22.256a3.551 3.551 0 0 0-2.007.62 3.695 3.695 0 0 0-1.336 1.656 3.807 3.807 0 0 0-.218 2.139c.134.72.472 1.382.973 1.904.5.523 1.14.882 1.838 1.032.698.15 1.424.086 2.087-.186a3.638 3.638 0 0 0 1.636-1.343 3.784 3.784 0 0 0 .638-2.049 3.821 3.821 0 0 0-.264-1.435 3.746 3.746 0 0 0-.78-1.222 3.635 3.635 0 0 0-1.178-.821 3.558 3.558 0 0 0-1.394-.295h.005Zm40.1-5.544c-4.41-4.341-8.528-8.756-10.579-14.682-1.644-4.743-.463-8.926 3.085-12.342 3.241-3.122 8.134-3.828 12.206-1.907 4.123 1.947 6.86 6.233 6.512 10.864a16.775 16.775 0 0 1-1.615 5.72c-2.239 4.784-5.723 8.612-9.609 12.347Zm-.032-14.692a3.552 3.552 0 0 0 2.008-.616 3.694 3.694 0 0 0 1.339-1.655c.277-.675.354-1.42.22-2.14a3.748 3.748 0 0 0-.972-1.906 3.593 3.593 0 0 0-1.838-1.033 3.531 3.531 0 0 0-2.088.186 3.638 3.638 0 0 0-1.637 1.342 3.784 3.784 0 0 0-.375 3.483c.178.456.443.87.778 1.221.335.35.734.63 1.174.822.44.192.913.292 1.392.296ZM18.635 56.918v-3.73h25.771c2.963 0 5.099-2.058 5.17-4.883a5.034 5.034 0 0 0-.295-1.943 4.936 4.936 0 0 0-1.014-1.668 4.789 4.789 0 0 0-1.57-1.127 4.681 4.681 0 0 0-1.874-.405c-3.508-.048-7.022.035-10.535-.035-4.165-.084-7.727-3.27-8.313-7.312-.637-4.4 1.68-8.406 5.694-9.81a5.037 5.037 0 0 1 1.536-.39c3.582-.033 7.164-.017 10.82-.017v3.72h-1.512c-2.654 0-5.307-.018-7.96 0-2.842.025-4.947 2.105-5.003 4.904-.057 2.8 2.055 5.079 4.934 5.13 3.347.057 6.693 0 10.045.02 4.932.02 8.7 3.79 8.737 8.717.037 4.928-3.778 8.864-8.734 8.877-8.286.025-16.57 0-24.856 0-.282-.003-.563-.026-1.041-.048Z" fill="#fff"/></svg>
